64x64/apps/com.endlessnetwork.missilemath.svg

<svg xmlns="http://www.w3.org/2000/svg" width="64" height="64" version="1">
 <path style="opacity:0.2" d="M 23.577846,36.390185 5.5233878,42.024141 c -0.377797,0.098 -0.7317942,0.038 -1.0585916,-0.175999 C 4.1555986,41.618144 4.0003998,41.326147 3.9999998,40.964149 l 0,1.999985 c 4e-4,0.361997 0.1555988,0.653995 0.4647964,0.883993 0.3267974,0.213998 0.6807946,0.273998 1.0585916,0.175998 L 23.577846,38.39017 25.991827,49.738081 26.377824,49.566082 23.577846,36.390185 Z m 16.843868,0 -2.855978,13.175897 0.393997,0.175999 2.461981,-11.351911 18.057858,5.633955 c 0.377997,0.098 0.731994,0.038 1.059992,-0.175998 0.307997,-0.229998 0.459996,-0.521996 0.459996,-0.883993 l 0,-1.999985 c 0,0.361998 -0.151999,0.653995 -0.459996,0.883993 -0.327998,0.213999 -0.681995,0.273998 -1.059992,0.175999 L 40.421714,36.390185 Z M 19.019882,55.016039 c -0.106199,0.165999 -0.179799,0.341997 -0.179799,0.537996 L 19.383079,60 32.00018,58.000016 44.618081,60 45.160077,55.554035 c 0,-0.195999 -0.074,-0.371997 -0.179999,-0.537996 L 44.616081,58.000016 31.99818,56.000031 19.381479,58.000016 19.018282,55.016039 Z"/>
 <circle style="fill:#535353" cx="32" cy="7" r="2"/>
 <path style="fill:#fead00" d="m 31.97178,7.0004239 c -0.155039,0 -0.299957,0.030546 -0.450716,0.043918 -0.182819,0.0164 -0.368737,0.021438 -0.546316,0.054898 -0.04872,0.0097 -0.0938,0.03009 -0.142039,0.041174 -4.712963,1.017772 -7.108344,7.9501372 -6.822146,14.5590862 -0.0048,0.193358 -0.03002,0.400736 -0.03,0.590155 L 4.5689153,34.732356 c -0.3608571,0.180299 -0.5511156,0.493516 -0.5681555,0.936013 l 0,6.29675 c 4.512e-4,0.360658 0.1551208,0.654475 0.4643564,0.883873 0.3266574,0.213459 0.6791946,0.271118 1.0571117,0.172939 l 18.0582581,-5.632556 2.797178,13.178297 -7.175744,3.200575 c -0.240578,0.229638 -0.360657,0.492416 -0.360577,0.787774 l 0.543196,4.445965 12.615701,-1.999985 12.615701,1.999985 0.543576,-4.443965 c 9e-5,-0.295358 -0.119999,-0.558136 -0.360557,-0.787794 l -7.233144,-3.200575 2.854378,-13.178297 18.061058,5.632556 c 0.377917,0.09818 0.730454,0.0405 1.057112,-0.172939 C 59.847601,42.621594 59.99954,42.327777 60,41.967099 l 0,-6.29675 C 59.983,35.227852 59.795422,34.914615 59.434565,34.734336 L 40.020717,22.290434 c 8e-6,-0.189439 -0.0152,-0.396797 -0.02,-0.590155 0.286238,-6.608949 -2.119383,-13.5412942 -6.832146,-14.5590862 -0.04824,-0.01108 -0.09332,-0.031486 -0.142039,-0.041174 -0.177559,-0.03346 -0.363497,-0.0385 -0.546316,-0.054898 -0.150739,-0.01338 -0.295657,-0.043918 -0.450696,-0.043918 -0.0104,0 -0.0198,0.00268 -0.03004,0.00274 -0.0094,-4.04e-5 -0.018,-0.00274 -0.02732,-0.00274 z"/>
 <path style="fill:#fe5600" d="M 18 26.123047 L 14 28.6875 L 14 40.376953 L 18 39.128906 L 18 26.123047 z M 46 26.123047 L 46 39.130859 L 50 40.378906 L 50 28.6875 L 46 26.123047 z M 12 29.96875 L 8 32.533203 L 8 42.248047 L 12 41 L 12 29.96875 z M 52 29.96875 L 52 41.001953 L 56 42.25 L 56 32.533203 L 52 29.96875 z"/>
 <path style="fill:#f4f4f7;opacity:0.2" d="M 31.972656 7 C 31.817617 7 31.672243 7.0315499 31.521484 7.0449219 C 31.338665 7.0613219 31.152188 7.0661494 30.974609 7.0996094 C 30.925889 7.1093094 30.88027 7.129541 30.832031 7.140625 C 26.260548 8.1278443 23.87824 14.67958 24 21.103516 C 24.13078 15.014599 26.497594 9.0747006 30.832031 8.1386719 C 30.88027 8.1275879 30.925889 8.1073563 30.974609 8.0976562 C 31.152188 8.0641963 31.338665 8.0593688 31.521484 8.0429688 C 31.672243 8.0295967 31.817617 7.9980469 31.972656 7.9980469 L 31.972656 8 C 31.981976 8 31.9906 8.0019127 32 8.0019531 C 32.01024 8.0018931 32.018897 8 32.029297 8 C 32.184336 8 32.32973 8.0295888 32.480469 8.0429688 C 32.663288 8.0593668 32.849785 8.0641963 33.027344 8.0976562 C 33.076063 8.1073442 33.119729 8.1275919 33.167969 8.1386719 C 37.499909 9.0742196 39.87725 15.008247 40.011719 21.09375 C 40.130047 14.673271 37.736699 8.1273109 33.167969 7.140625 C 33.119729 7.129545 33.076063 7.1092974 33.027344 7.0996094 C 32.849785 7.0661494 32.663288 7.0613199 32.480469 7.0449219 C 32.32973 7.0315419 32.184336 7.0019531 32.029297 7.0019531 C 32.018897 7.0019531 32.01024 7.0038462 32 7.0039062 C 31.9906 7.0038659 31.981976 7.0019531 31.972656 7.0019531 L 31.972656 7 z M 23.996094 21.957031 C 23.988255 22.069321 23.980457 22.18245 23.980469 22.289062 L 4.5683594 34.732422 C 4.2075023 34.912721 4.0170399 35.225472 4 35.667969 L 4 36.666016 C 4.0170399 36.223519 4.2075023 35.910768 4.5683594 35.730469 L 23.980469 23.287109 C 23.980449 23.09769 24.004966 22.890624 24.009766 22.697266 C 23.999089 22.450726 23.999326 22.204147 23.996094 21.957031 z M 40.011719 22.041016 C 40.00813 22.260363 40.009479 22.480354 40 22.699219 C 40.0048 22.892577 40.021492 23.099623 40.021484 23.289062 L 59.433594 35.732422 C 59.794451 35.912701 59.983 36.225472 60 36.667969 L 60 35.669922 C 59.983 35.227425 59.794451 34.914654 59.433594 34.734375 L 40.021484 22.291016 C 40.021488 22.210716 40.015232 22.125324 40.011719 22.041016 z M 26.183594 50.654297 L 19.201172 53.767578 C 18.960594 53.997216 18.841717 54.261283 18.841797 54.556641 L 18.919922 55.191406 C 18.978902 55.03989 19.064681 54.895909 19.201172 54.765625 L 26.376953 51.566406 L 26.183594 50.654297 z M 37.763672 50.658203 L 37.566406 51.568359 L 44.798828 54.767578 C 44.935307 54.897873 45.023052 55.041841 45.082031 55.193359 L 45.160156 54.558594 C 45.160246 54.263236 45.039386 53.999189 44.798828 53.769531 L 37.763672 50.658203 z"/>
 <rect style="fill:#292929" width="20" height="2" x="22" y="7" rx="1.25" ry="2"/>
 <path style="fill:#292929" d="m 39.999717,29.666246 c 0,5.155959 -3.581972,9.333927 -7.999937,9.333927 -4.417965,0 -7.999937,-4.177968 -7.999937,-9.333927 0,-5.15396 3.581972,-6.665948 7.999937,-6.665948 4.418165,0 7.999937,1.511988 7.999937,6.666548 z"/>
</svg>

<svg xmlns="http://www.w3.org/2000/svg" width="64" height="64" version="1"><path style="opacity:.2" d="M23.578 36.39 5.523 42.024a1.274 1.274 0 0 1-1.058-.176c-.31-.23-.465-.522-.465-.884v2c0 .362.156.654.465.884.327.214.68.274 1.058.176l18.055-5.634 2.414 11.348.386-.172-2.8-13.176zm16.844 0-2.856 13.176.394.176 2.462-11.352 18.058 5.634c.378.098.732.038 1.06-.176.308-.23.46-.522.46-.884v-2c0 .362-.152.654-.46.884a1.277 1.277 0 0 1-1.06.176L40.422 36.39zM19.02 55.016a.994.994 0 0 0-.18.538L19.383 60 32 58l12.618 2 .542-4.446a.995.995 0 0 0-.18-.538L44.616 58l-12.618-2-12.617 2-.363-2.984z"/><circle style="fill:#535353" cx="32" cy="7" r="2"/><path style="fill:#fead00" d="M31.972 7c-.155 0-.3.031-.45.044-.184.017-.37.022-.547.055-.049.01-.094.03-.142.041-4.713 1.018-7.109 7.95-6.822 14.56-.005.193-.03.4-.03.59L4.569 34.732c-.36.18-.551.494-.568.936v6.297c0 .36.155.655.464.884.327.213.68.271 1.057.173l18.058-5.633 2.798 13.179-7.176 3.2c-.24.23-.36.493-.36.788l.543 4.446 12.615-2 12.616 2 .544-4.444c0-.295-.12-.558-.361-.788l-7.233-3.2L40.42 37.39l18.061 5.633c.378.098.73.04 1.057-.173.31-.23.462-.523.462-.884V35.67c-.017-.442-.205-.755-.565-.936L40.02 22.29c0-.189-.015-.396-.02-.59.286-6.609-2.12-13.541-6.832-14.559-.049-.01-.094-.031-.142-.041-.178-.033-.364-.038-.547-.055-.15-.013-.295-.044-.45-.044l-.03.003c-.01 0-.019-.003-.028-.003z"/><path style="fill:#fe5600" d="m18 26.123-4 2.564v11.69l4-1.248V26.123zm28 0v13.008l4 1.248V28.688l-4-2.565zm-34 3.846-4 2.564v9.715L12 41V29.969zm40 0v11.033l4 1.248v-9.717l-4-2.564z"/><path style="fill:#f4f4f7;opacity:.2" d="M31.973 7c-.155 0-.3.032-.452.045-.182.016-.369.021-.546.055-.05.01-.095.03-.143.04-4.571.988-6.954 7.54-6.832 13.964.13-6.09 2.498-12.03 6.832-12.965.048-.011.094-.032.143-.041.177-.034.364-.039.546-.055.151-.013.297-.045.452-.045V8l.027.002.03-.002c.154 0 .3.03.45.043.183.016.37.021.547.055.05.01.093.03.141.04 4.332.936 6.71 6.87 6.844 12.956.118-6.42-2.275-12.967-6.844-13.953-.048-.011-.092-.032-.14-.041-.178-.034-.365-.039-.548-.055-.15-.013-.296-.043-.45-.043l-.03.002-.027-.002V7zm-7.977 14.957a4.862 4.862 0 0 0-.016.332L4.568 34.732c-.36.18-.551.493-.568.936v.998c.017-.442.208-.755.568-.936L23.98 23.287c0-.19.025-.396.03-.59-.01-.246-.01-.493-.014-.74zm16.016.084c-.004.22-.003.44-.012.658.005.194.021.4.021.59l19.413 12.443c.36.18.549.493.566.936v-.998c-.017-.443-.206-.755-.566-.936L40.02 22.291c0-.08-.006-.166-.01-.25zM26.184 50.654 19.2 53.768c-.24.23-.36.493-.36.789l.079.634a1.15 1.15 0 0 1 .281-.425l7.176-3.2-.193-.912zm11.58.004-.198.91 7.233 3.2c.136.13.224.274.283.425l.078-.634c0-.296-.12-.56-.361-.79l-7.035-3.11z"/><rect style="fill:#292929" width="20" height="2" x="22" y="7" rx="1.25" ry="2"/><path style="fill:#292929" d="M40 29.666C40 34.822 36.418 39 32 39s-8-4.178-8-9.334C24 24.512 27.582 23 32 23s8 1.512 8 6.667z"/></svg>
